svg/color/arb.svg

<svg width="64" height="65" viewBox="0 0 64 65" fill="none" xmlns="http://www.w3.org/2000/svg">
<g clip-path="url(#clip0_26113_11339)">
<rect y="0.303711" width="64" height="64" rx="32" fill="#2C374B"/>
<path d="M50.5604 38.2522L40.8259 22.8915L37.2566 28.9022L46.6666 44.5969L50.8849 42.5933L50.5604 38.2522Z" fill="#24A2EE"/>
<path d="M46.2124 46.4814L36.1609 31.4186L31.8053 37.9676L39.8465 50.4108L44.8722 48.4461L46.2124 46.4814Z" fill="#24A2EE"/>
<path fill-rule="evenodd" clip-rule="evenodd" d="M13.6391 21.1089L31.8346 10.5479L50.0301 21.1089V42.231L31.8346 52.7921L18.7611 45.5659L16.6165 48.1716L31.5038 56.7525C31.8346 57.0825 32.1654 57.0825 32.4962 56.7525L53.3383 44.8713C53.6692 44.5412 54 44.2112 54 43.8812V20.1188C54 19.7888 53.6692 19.4587 53.3383 19.1287L32.4962 7.24752C32.1654 6.91749 31.8346 6.91749 31.5038 7.24752L10.6617 18.7987C10.3308 19.1287 10 19.4587 10 19.7888V43.5512C10 43.8812 10.3308 44.2112 10.6617 44.5412L14.9624 46.8515L16.6165 43.8812L13.9699 42.231V21.1089H13.6391Z" fill="#98BCDC"/>
<path d="M39.593 20.9535H32.7009L16.6195 48.2791L22.0708 51.3798L39.593 20.9535Z" fill="white"/>
<path d="M22.3157 23.803C23.98 21.1608 28.64 21.1608 30.6372 21.4911L14.8673 46.9225C14.2015 46.5922 12.6629 45.9316 11.6643 45.2711C10.3329 44.6105 10 44.6105 10 43.6197V42.2986C13.6614 37.0141 20.6514 26.4452 22.3157 23.803Z" fill="white"/>
</g>
<rect x="0.5" y="0.803711" width="63" height="63" rx="31.5" stroke="#070B14" stroke-opacity="0.15"/>
<defs>
<clipPath id="clip0_26113_11339">
<rect y="0.303711" width="64" height="64" rx="32" fill="white"/>
</clipPath>
</defs>
</svg>

<svg xmlns="http://www.w3.org/2000/svg" width="64" height="65" fill="none" viewBox="0 0 64 65"><g clip-path="url(#arb_svg-a)"><rect width="64" height="64" y=".304" fill="#2C374B" rx="32"/><path fill="#24A2EE" d="m50.56 38.252-9.734-15.36-3.57 6.01 9.41 15.695 4.219-2.004zm-4.348 8.229L36.161 31.42l-4.356 6.549 8.041 12.443 5.026-1.965z"/><path fill="#98BCDC" fill-rule="evenodd" d="m13.64 21.109 18.195-10.561 18.195 10.56v21.123L31.835 52.792 18.76 45.566l-2.145 2.606 14.888 8.58q.495.495.992 0l20.842-11.88c.331-.33.662-.66.662-.99V20.118c0-.33-.33-.66-.662-.99L32.496 7.248q-.495-.495-.992 0l-20.842 11.55c-.331.33-.662.66-.662.99v23.763c0 .33.33.66.662.99l4.3 2.31 1.654-2.97-2.646-1.65V21.109z" clip-rule="evenodd"/><path fill="#fff" d="M39.593 20.954h-6.892L16.619 48.278l5.452 3.1zm-17.277 2.849c1.664-2.642 6.324-2.642 8.321-2.312l-15.77 25.432c-.666-.33-2.204-.991-3.203-1.652-1.331-.66-1.664-.66-1.664-1.651v-1.321c3.661-5.285 10.651-15.854 12.316-18.496"/></g><rect width="63" height="63" x=".5" y=".804" stroke="#070B14" stroke-opacity=".15" rx="31.5"/><defs><clipPath id="arb_svg-a"><rect width="64" height="64" y=".304" fill="#fff" rx="32"/></clipPath></defs></svg>
